local/share/icons/dracula-icons-main/scalable/mimetypes/application-x-srt.svg

<svg width="64" height="64" version="1.1" viewBox="0 0 64 64" xmlns="http://www.w3.org/2000/svg">
 <defs>
  <linearGradient id="a" x1="49.571" x2="51.714" y1="52.714" y2="54.857" gradientTransform="matrix(2.3333,0,0,2.3333,-68.667,-72.001)" gradientUnits="userSpaceOnUse">
   <stop offset="0"/>
   <stop stop-opacity="0" offset="1"/>
  </linearGradient>
 </defs>
 <g transform="scale(1)">
  <rect x="8" y="4" width="48" height="56" ry="5" fill="#f4f4f4" style="paint-order:stroke fill markers"/>
  <path d="m56 46-14 14h9c2.77 0 5-2.23 5-5z" fill="url(#a)" fill-rule="evenodd" opacity=".1" stroke-width="8.8191" style="paint-order:stroke fill markers"/>
 </g>
 <path d="m21 22v13h7v-1h-4v-4h4v-1h6v-7zm1 1h1v2h-1zm2 0h7v4h-7zm8 0h1v2h-1zm-10 3h1v2h-1zm10 0h1v2h-1zm-10 4h1v2h-1zm7 0v10l4 4v-4h10v-10zm1 1h12v8h-12zm-8 2h1v1h-1z" color="#000000" color-rendering="auto" image-rendering="auto" opacity=".35" shape-rendering="auto" solid-color="#000000" style="filter-blend-mode:normal;filter-gaussianBlur-deviation:0;isolation:auto;mix-blend-mode:normal"/>
</svg>

<?xml version="1.0" encoding="UTF-8"?>
<svg xmlns="http://www.w3.org/2000/svg" xmlns:xlink="http://www.w3.org/1999/xlink" width="64" height="64" viewBox="0 0 64 64">
<defs>
<filter id="filter-remove-color" x="0%" y="0%" width="100%" height="100%">
<feColorMatrix color-interpolation-filters="sRGB" values="0 0 0 0 1 0 0 0 0 1 0 0 0 0 1 0 0 0 1 0" />
</filter>
<mask id="mask-0">
<g filter="url(#filter-remove-color)">
<rect x="-6.4" y="-6.4" width="76.8" height="76.8" fill="rgb(0%, 0%, 0%)" fill-opacity="0.1"/>
</g>
</mask>
<linearGradient id="linear-pattern-0" gradientUnits="userSpaceOnUse" x1="49.570999" y1="52.714001" x2="51.714001" y2="54.856998" gradientTransform="matrix(2.3333, 0, 0, 2.3333, -68.667, -72.000999)">
<stop offset="0" stop-color="rgb(0%, 0%, 0%)" stop-opacity="1"/>
<stop offset="1" stop-color="rgb(0%, 0%, 0%)" stop-opacity="0"/>
</linearGradient>
<clipPath id="clip-0">
<rect x="0" y="0" width="64" height="64"/>
</clipPath>
<g id="source-16078" clip-path="url(#clip-0)">
<path fill-rule="evenodd" fill="url(#linear-pattern-0)" d="M 56 46 L 42 60 L 51 60 C 53.769531 60 56 57.769531 56 55 Z M 56 46 "/>
</g>
<mask id="mask-1">
<g filter="url(#filter-remove-color)">
<rect x="-6.4" y="-6.4" width="76.8" height="76.8" fill="rgb(0%, 0%, 0%)" fill-opacity="0.35"/>
</g>
</mask>
<clipPath id="clip-1">
<rect x="0" y="0" width="64" height="64"/>
</clipPath>
<g id="source-16082" clip-path="url(#clip-1)">
<path fill-rule="nonzero" fill="rgb(0%, 0%, 0%)" fill-opacity="1" d="M 21 22 L 21 35 L 28 35 L 28 34 L 24 34 L 24 30 L 28 30 L 28 29 L 34 29 L 34 22 Z M 22 23 L 23 23 L 23 25 L 22 25 Z M 24 23 L 31 23 L 31 27 L 24 27 Z M 32 23 L 33 23 L 33 25 L 32 25 Z M 22 26 L 23 26 L 23 28 L 22 28 Z M 32 26 L 33 26 L 33 28 L 32 28 Z M 22 30 L 23 30 L 23 32 L 22 32 Z M 29 30 L 29 40 L 33 44 L 33 40 L 43 40 L 43 30 Z M 30 31 L 42 31 L 42 39 L 30 39 Z M 22 33 L 23 33 L 23 34 L 22 34 Z M 22 33 "/>
</g>
</defs>
<path fill-rule="nonzero" fill="rgb(95.686275%, 95.686275%, 95.686275%)" fill-opacity="1" d="M 13 4 L 51 4 C 53.761719 4 56 6.238281 56 9 L 56 55 C 56 57.761719 53.761719 60 51 60 L 13 60 C 10.238281 60 8 57.761719 8 55 L 8 9 C 8 6.238281 10.238281 4 13 4 Z M 13 4 "/>
<g mask="url(#mask-0)">
<use xlink:href="#source-16078"/>
</g>
<g mask="url(#mask-1)">
<use xlink:href="#source-16082"/>
</g>
</svg>
